X:5
T:Hark! The Herald Angels Sing
M:4/4
L:1/4
Z:Kevin Goess 9/9/2004
C:Charles Wesley, 1739, Felix Mendelssohn, 1840
Q:120
N:Charles Wesley wrote the hymn in 1839, Felix Mendelssohn wrote the tune in 1840, and in 1855  W.H. Cummings put the two together.
K:G
"G" D G (G "D" G/) F/ | "G" G B "D" (B A) | "G" d d "C" d>c | "D" B A "G" B2 |
w:Hark! the her -ald an-gels sing,_ "Glo-ry to the new-born King;
"G" D G (G "D" G/)  F/ | "G" G B "A" (B A) | "D" d A A>F | "D" F "A" E "D" D2 |
w:Peace on earth_ and mer-cy mild_ God and sin-ners rec-on-ciled!
"G" d d d G | "D7" c "G" B "D" (B A) | "G" d d d G | "D7" c "G" B "D" (B A) |
w:Joy-ful all ye na-tions rise_ Join the tri-umph of the skies_
"C" e e e "E7" d | "Am" c "E" B "Am" c2 | "D" A "G" B/c/ d>G | "Em" G "D" A "G" B2 |
w:With th'an-gel-ic host pro-claim, "Christ is_ born in Beth-le-hem!"
"C" e>e e "E7" d | "Am" c "E" B "Am" c2 | "D" A B/c/ "G" d>G | "Em" G "D" A "G" G2 |]
w:Hark! the he-rald an-gels sing, "Glo-ry_ to the new-born King!"
W:
W:Christ, by highest heav'n adored, 
W:Christ the ever lasting Lord,
W:Late in time behold Him come,
W:Offspring of the favored one.
W:Veiled in flesh the Godhead see,
W:Hail th'incarnate Deity!
W:Pleased as Man with man to dwell;
W:Jesus, our Immanuel!
W:Hark! The herald angels sing, 
W:"Glory to the new-born King!"
W:
W:
W:Hail, the heav'nly Prince of Peace! 
W:Hail, the Son of Righteousness!
W:Light and life to all He brings,
W:Ris'n with healing in His wings.
W:Mild He leaves HIs throne on high, 
W:Born that man no more may die;
W:Born to raise the sons of earth;
W:Born to give them second birth.
W:Hark! The herald angels sing, 
W:"Glory to the new-born King!"
W:
W:Come, Desire of nations come,
W:Fix in us Thy humble home;
W:Oh, to all Thyself impart,
W:Formed in each believing heart.
W:Hark! the herald angels sing,
W:"Glory to the newborn King;
W:Peace on earth and mercy mild,
W:God and sinners reconciled!"
W:Hark! The herald angels sing, 
W:"Glory to the new-born King!"


